public/images/Floating.svg

<svg width="244" height="68" viewBox="0 0 244 68" fill="none" xmlns="http://www.w3.org/2000/svg">
<path d="M0.411021 4.38863L29.7015 4.38863L29.7015 11.3241L7.61581 11.3241L7.6158 26.003L26.9408 26.003L26.9408 32.8711L7.6158 32.8711L7.6158 53.2734L0.411018 53.2734L0.411021 4.38863ZM38.6449 0.954578L45.5803 0.954579L45.5803 53.2734L38.6449 53.2734L38.6449 0.954578ZM53.712 38.8639C53.712 36.0358 54.3854 33.4996 55.732 31.2551C57.0787 28.9657 58.9417 27.1701 61.3208 25.8683C63.7 24.5665 66.4158 23.9156 69.4683 23.9156C72.5657 23.9156 75.2815 24.5665 77.6157 25.8683C79.95 27.1701 81.7456 28.9657 83.0025 31.2551C84.3043 33.4996 84.9552 36.0358 84.9552 38.8639C84.9552 41.6919 84.3043 44.2506 83.0025 46.54C81.7456 48.8294 79.95 50.6474 77.6157 51.9941C75.2815 53.2959 72.5432 53.9468 69.4009 53.9468C66.3933 53.9468 63.7 53.3408 61.3208 52.1288C58.9865 50.9167 57.1236 49.1885 55.732 46.944C54.3854 44.6546 53.712 41.9613 53.712 38.8639ZM60.7148 38.9312C60.7148 40.6819 61.0964 42.2755 61.8595 43.712C62.6226 45.1035 63.6551 46.2258 64.9569 47.0787C66.2587 47.8867 67.7176 48.2907 69.3336 48.2907C70.9945 48.2907 72.4759 47.8867 73.7777 47.0787C75.0795 46.2258 76.0895 45.1035 76.8077 43.712C77.5709 42.2755 77.9524 40.6819 77.9524 38.9312C77.9524 37.1805 77.5709 35.6094 76.8077 34.2178C76.0895 32.8262 75.0795 31.704 73.7777 30.8511C72.4759 29.9982 70.9945 29.5717 69.3336 29.5717C67.6727 29.5717 66.1913 29.9982 64.8895 30.8511C63.5877 31.704 62.5553 32.8487 61.7921 34.2851C61.0739 35.6767 60.7148 37.2254 60.7148 38.9312ZM104.94 53.9468C102.292 53.9468 99.8903 53.4081 97.7356 52.3308C95.5809 51.2085 93.8751 49.5476 92.6182 47.348C91.3613 45.1484 90.7328 42.4326 90.7328 39.2005C90.7328 36.0134 91.3837 33.2751 92.6855 30.9857C94.0322 28.6964 95.7829 26.9457 97.9376 25.7337C100.137 24.4767 102.516 23.8483 105.075 23.8483C107.768 23.8483 109.968 24.4319 111.674 25.599C113.425 26.7212 114.794 28.0455 115.781 29.5717L115.31 30.6491L115.983 25.0603L122.38 25.0603L122.38 53.2734L115.445 53.2734L115.445 46.2033L116.185 47.8867C116.006 48.2458 115.624 48.762 115.041 49.4354C114.457 50.0638 113.671 50.7372 112.684 51.4554C111.741 52.1736 110.619 52.7797 109.317 53.2734C108.06 53.7223 106.601 53.9468 104.94 53.9468ZM106.826 48.2907C108.307 48.2907 109.631 48.0214 110.798 47.4827C111.966 46.944 112.953 46.1809 113.761 45.1933C114.569 44.2057 115.13 43.0386 115.445 41.6919L115.445 35.8338C115.085 34.5769 114.479 33.4996 113.627 32.6018C112.774 31.6591 111.741 30.9184 110.529 30.3797C109.362 29.8411 108.06 29.5717 106.624 29.5717C105.008 29.5717 103.526 29.9757 102.18 30.7837C100.833 31.5469 99.7556 32.6242 98.9476 34.0158C98.1396 35.4074 97.7356 37.0234 97.7356 38.8639C97.7356 40.6146 98.1396 42.2082 98.9476 43.6446C99.8005 45.0811 100.923 46.2258 102.314 47.0787C103.706 47.8867 105.21 48.2907 106.826 48.2907ZM135.699 12.6708L142.634 12.6708L142.634 25.1276L150.175 25.1276L150.175 30.5817L142.634 30.5817L142.634 53.2734L135.699 53.2734L135.699 30.5817L130.716 30.5817L130.716 25.1276L135.699 25.1276L135.699 12.6708ZM157.664 25.0603L164.599 25.0603L164.599 53.2734L157.664 53.2734L157.664 25.0603ZM157.26 14.9601C157.26 13.8828 157.686 12.985 158.539 12.2668C159.392 11.5485 160.312 11.1894 161.3 11.1894C162.332 11.1894 163.253 11.5485 164.061 12.2668C164.869 12.985 165.273 13.8828 165.273 14.9602C165.273 16.0375 164.869 16.9353 164.061 17.6535C163.253 18.3269 162.332 18.6635 161.3 18.6635C160.312 18.6635 159.392 18.3269 158.539 17.6535C157.686 16.9353 157.26 16.0375 157.26 14.9601ZM181.35 25.0603L181.956 31.5244L181.686 30.6491C182.629 28.629 184.088 27.013 186.063 25.801C188.038 24.5441 190.373 23.9156 193.066 23.9156C195.714 23.9156 197.892 24.7012 199.597 26.2723C201.348 27.8435 202.246 29.886 202.291 32.3998L202.291 53.2735L195.355 53.2735L195.355 34.8238C195.31 33.3873 194.884 32.2202 194.076 31.3224C193.268 30.3797 192.011 29.886 190.305 29.8411C188.779 29.8411 187.387 30.3124 186.13 31.2551C184.874 32.1529 183.886 33.3873 183.168 34.9585C182.45 36.5296 182.09 38.3476 182.09 40.4126L182.09 53.2734L175.155 53.2734L175.155 25.0603L181.35 25.0603ZM226.703 67.279C224.503 67.279 222.595 67.0321 220.979 66.5383C219.363 66.0446 217.904 65.3488 216.602 64.451C215.346 63.5981 214.134 62.6778 212.966 61.6903L217.074 56.9095C218.465 58.2113 219.902 59.2438 221.383 60.0069C222.865 60.8149 224.593 61.2189 226.568 61.2189C228.543 61.2189 230.226 60.8822 231.618 60.2089C233.054 59.5804 234.154 58.6827 234.917 57.5155C235.681 56.3484 236.062 54.9568 236.062 53.3408L236.129 46.0013L236.601 47.348C235.838 49.1885 234.424 50.7596 232.359 52.0614C230.294 53.3183 227.758 53.9468 224.75 53.9468C222.191 53.9468 219.812 53.2959 217.612 51.9941C215.458 50.6923 213.73 48.9192 212.428 46.6747C211.126 44.4302 210.475 41.8939 210.475 39.0659C210.475 36.1032 211.148 33.4996 212.495 31.2551C213.887 28.9657 215.705 27.1701 217.949 25.8683C220.194 24.5216 222.595 23.8483 225.154 23.8483C227.668 23.8483 229.912 24.3421 231.887 25.3297C233.863 26.2723 235.344 27.4619 236.331 28.8984L235.927 30.0431L236.668 25.0603L243.065 25.0603L243.065 53.4081C243.065 56.0117 242.369 58.346 240.978 60.4109C239.631 62.5207 237.745 64.1816 235.321 65.3937C232.897 66.6506 230.024 67.279 226.703 67.279ZM217.478 38.8639C217.478 40.6146 217.882 42.2082 218.69 43.6446C219.498 45.0811 220.598 46.2258 221.989 47.0787C223.426 47.8867 225.019 48.2907 226.77 48.2907C228.341 48.2907 229.755 48.0214 231.012 47.4827C232.269 46.8991 233.324 46.136 234.177 45.1933C235.075 44.2057 235.725 43.0611 236.129 41.7593L236.129 35.9012C235.725 34.5994 235.075 33.4996 234.177 32.6018C233.279 31.6591 232.202 30.9184 230.945 30.3797C229.688 29.8411 228.296 29.5717 226.77 29.5717C225.019 29.5717 223.426 29.9757 221.989 30.7837C220.598 31.5469 219.498 32.6242 218.69 34.0158C217.882 35.4074 217.478 37.0234 217.478 38.8639Z" fill="white"/>
</svg>

<svg xmlns="http://www.w3.org/2000/svg" width="244" height="68" viewBox="0 0 244 68"><path d="M.41,4.39H29.7v6.93H7.62V26H26.94v6.87H7.62v20.4H.41Zm53.3,34.47a14.54,14.54,0,0,1,2-7.6,14.35,14.35,0,0,1,5.59-5.39,16.73,16.73,0,0,1,8.15-1.95,16.49,16.49,0,0,1,8.15,1.95A13.48,13.48,0,0,1,83,31.26a14.88,14.88,0,0,1,2,7.6,15.29,15.29,0,0,1-2,7.68A13.88,13.88,0,0,1,77.62,52a16.55,16.55,0,0,1-8.22,2,17.57,17.57,0,0,1-8.08-1.82,14.1,14.1,0,0,1-5.59-5.19A15.71,15.71,0,0,1,53.71,38.86Zm7,.07a10,10,0,0,0,1.15,4.78A9.3,9.3,0,0,0,65,47.08a8.1,8.1,0,0,0,4.37,1.21,8.25,8.25,0,0,0,4.45-1.21,8.79,8.79,0,0,0,3-3.37A10,10,0,0,0,78,38.93a9.66,9.66,0,0,0-1.14-4.71,8.79,8.79,0,0,0-3-3.37,8.36,8.36,0,0,0-8.89,0,9.21,9.21,0,0,0-3.1,3.44A10,10,0,0,0,60.71,38.93Zm44.23,15a15.81,15.81,0,0,1-7.2-1.62,12.39,12.39,0,0,1-5.12-5,16.19,16.19,0,0,1-1.89-8.15,16.25,16.25,0,0,1,2-8.21,14,14,0,0,1,5.25-5.26,14.21,14.21,0,0,1,7.13-1.88,11.41,11.41,0,0,1,6.6,1.75,13.37,13.37,0,0,1,4.11,4l-.47,1.08.67-5.59h6.4V53.27h-6.94V46.2l.74,1.69A8.47,8.47,0,0,1,115,49.44a16.77,16.77,0,0,1-2.36,2,13.37,13.37,0,0,1-3.36,1.81A13,13,0,0,1,104.94,54Zm1.89-5.66a9.36,9.36,0,0,0,4-.81,8.21,8.21,0,0,0,3-2.29,8.33,8.33,0,0,0,1.68-3.5V35.83a7.75,7.75,0,0,0-1.81-3.23,9.42,9.42,0,0,0-7-3A8.91,8.91,0,0,0,99,34a9.43,9.43,0,0,0-1.21,4.84A9.54,9.54,0,0,0,99,43.64a9.8,9.8,0,0,0,3.36,3.44A8.85,8.85,0,0,0,106.83,48.29ZM135.7,12.67h6.93V25.13h7.55v5.45h-7.55V53.27H135.7V30.58h-5V25.13h5ZM157.26,15a3.37,3.37,0,0,1,1.28-2.69,4.19,4.19,0,0,1,2.76-1.08,4,4,0,0,1,2.76,1.08A3.42,3.42,0,0,1,165.27,15a3.42,3.42,0,0,1-1.21,2.69,4.17,4.17,0,0,1-2.76,1,4.32,4.32,0,0,1-2.76-1A3.37,3.37,0,0,1,157.26,15Zm24.09,10.1.61,6.46-.27-.87a11.11,11.11,0,0,1,4.37-4.85,12.76,12.76,0,0,1,7-1.88,9.28,9.28,0,0,1,6.53,2.35,8,8,0,0,1,2.69,6.13V53.27h-6.94V34.82a5.32,5.32,0,0,0-1.27-3.5,4.93,4.93,0,0,0-3.78-1.48,6.76,6.76,0,0,0-4.17,1.42,9,9,0,0,0-3,3.7,13,13,0,0,0-1.08,5.45V53.27h-6.94V25.06ZM226.7,67.28a19.81,19.81,0,0,1-5.72-.74,15.83,15.83,0,0,1-4.38-2.09A41.81,41.81,0,0,1,213,61.69l4.1-4.78a19.53,19.53,0,0,0,4.31,3.1,10.78,10.78,0,0,0,5.19,1.21,11.57,11.57,0,0,0,5.05-1,7,7,0,0,0,4.44-6.87l.07-7.34.47,1.35a10.3,10.3,0,0,1-4.24,4.71A14.37,14.37,0,0,1,224.75,54a13.71,13.71,0,0,1-7.14-2,14.69,14.69,0,0,1-5.18-5.32,14.88,14.88,0,0,1-2-7.6,14.91,14.91,0,0,1,2-7.81A15.4,15.4,0,0,1,218,25.87a13.73,13.73,0,0,1,7.2-2,14.85,14.85,0,0,1,6.74,1.48,10.93,10.93,0,0,1,4.44,3.57l-.4,1.14.74-5h6.4V53.41a12.25,12.25,0,0,1-2.09,7,14,14,0,0,1-5.66,5A18.46,18.46,0,0,1,226.7,67.28Zm-9.22-28.42a9.54,9.54,0,0,0,1.21,4.78,9.31,9.31,0,0,0,3.3,3.44,9.57,9.57,0,0,0,4.78,1.21,10.62,10.62,0,0,0,4.24-.81,9.64,9.64,0,0,0,3.17-2.29,9,9,0,0,0,1.95-3.43V35.9a8,8,0,0,0-1.95-3.3A9.8,9.8,0,0,0,231,30.38a10.49,10.49,0,0,0-4.18-.81A9.67,9.67,0,0,0,222,30.78a8.49,8.49,0,0,0-3.3,3.24A9.43,9.43,0,0,0,217.48,38.86Z" fill="#fff"/></svg>
